img/scene_2_wave_3.svg

<svg width="2167" height="823" fill="none" xmlns="http://www.w3.org/2000/svg">
  <g clip-path="url(#a)">
    <path d="M2098.06 53.89c-51.81-23.62-108.34-32.407-163.74-27.817-55.39 4.59-113 20.357-160.48 55.32-50 36.756-88.45 89.383-131.29 136.293-41.7 45.672-87.46 82.885-144.19 95.921-75.1 17.26-151.69 8.51-224.76-16.741-36.29-12.556-71.72-28.197-106.5-45.685-37.9-19.055-74.72-42.662-113.72-58.518-155.418-63.222-310.737 1.72-458.209 63.146-74.804 31.118-148.622 58.986-227.697 69.191-71.898 9.268-141.875 8.56-210.537-20.851C100.442 279.947 48.269 244.252.063 201.489v469.247H2167.1V99.79a262.358 262.358 0 0 0-69.04-45.9Z" fill="#65D5F5"/>
    <path d="M2132.78 127.683c-63.8-39.35-141.61-48.415-211.9-32.357-58.12 13.277-105.26 54.523-146.57 102.597-41.08 47.758-77.82 101.155-122.47 144.526-49.94 48.554-109.93 80.052-174.98 86.323-71.31 6.891-140.95-15.388-205.41-50.097-34.71-18.688-68.23-40.26-101.09-63.02-34.92-24.163-68.75-50.451-108.02-63.917-146.485-50.224-283.04 64.486-409.664 134.486a637.273 637.273 0 0 1-220.759 73.679c-39.487 5.513-79.012 7.245-118.777 7.017-35.052-.202-70.659-.923-105.066-9.761-69.346-17.803-131.981-68.722-186.656-120.286A1085.253 1085.253 0 0 1-.063 316.06v354.676H2166.97V156.93a148.116 148.116 0 0 0-34.19-29.247Z" fill="#0AC0EF"/>
    <path d="M2081.1 195.091c-41.34-11.38-84.81-16.514-126.77-6.424-35.38 8.535-68.51 26.212-98.18 50.578-25.82 21.154-49.35 45.924-71.4 72.288-23.02 27.514-44.62 55.99-71.07 79.154-51.3 44.926-111.82 73.919-175.08 84.528-63.27 10.609-127.74 5.45-189.4-13.327-56.19-17.184-106.52-46.784-155.48-83.2-46.59-34.608-91.83-73.338-142.3-99.891-53.395-28.109-111.305-38.857-168.583-21.243-66.856 20.573-125.903 68.508-181.614 115.001-56.28 46.987-112.18 96.401-175.637 129.34-66.844 34.595-139.992 57.355-213.368 57.355-70.483-.076-145.312-10.963-212.585-36.34C60.677 508.192 28.14 482.524 0 450.445v372.542h2167.04v-577.23c-24.31-25.567-52.68-41.55-85.94-50.666Z" fill="#3DCBF2"/>
    <path d="M2166.81 302.568a666.846 666.846 0 0 0-149.62-14.111c-38.68.67-78.82 4.716-114.8 18.967-36.51 14.402-64.44 42.219-95.56 64.259-83.21 58.809-190.28 119.591-295.93 129.162 47.27-4.273 92.09-4.64 138.99-16.02 51.42-12.467 101.84-31.004 147.96-55.699 25.92-13.909 48.83-32.332 75.13-45.659 30.19-15.299 60.73-18.499 94.43-21.078 64.6-4.931 138.76-8.295 199.64 16.438l-.24-76.259Z" fill="#0AC0EF"/>
    <path d="M645.461 505.423c18.663-8.434 37.579-28.147 56.065-38.844 48.459-28.045 101.857-48.668 157.215-58.265 175.369-30.347 339.899 92.557 507.249 125.508 175.08 34.469 369.22 32.458 525.84-62.324-20.68 12.518-39.09 39.981-59.83 54.75-59.72 42.498-128.43 66.434-197.43 77.536-127.63 20.547-259.04-1.783-381.31-39.198-91.99-28.172-168.94-92.216-263.322-113.952-102.602-23.619-210.878.683-306.708 38.781a839.482 839.482 0 0 0-37.769 16.008Z" fill="#0AC0EF"/>
    <path d="M877.075 502.477a688.735 688.735 0 0 1 90.978 6.663c78.347 11.19 141.587 46.392 213.907 73.641 117.62 44.256 244.49 71.315 370.68 67.901 106.43-2.871 208.83-34.14 299.96-88.41 37.9-22.583 71.82-57.772 112.56-74.261 42.96-17.36 94.41-13.605 138.48-3.793-25.92-5.791-81.37 36.011-100.16 48.403a651.552 651.552 0 0 0-92.94 74.387c-28.6 27.615-50.31 62.451-83.71 85.008-98.56 66.561-259.52 81.961-374.8 83.087-188.4 1.833-362.38-53.435-529.782-135.295 0 0-258.098-126.154-433.331-44.559 65.782-30.625 123.199-60.314 196.777-74.147 62.825-11.734 127.217-19.207 191.381-18.625Z" fill="#09B0EC"/>
    <path d="M2162.12 610.953c-39.42-13.137-80.63-22.899-121.98-25.441-52.33-3.224-105.63 11.38-155.54 26.351a1125.368 1125.368 0 0 0-131.21 48.681c-42.23 18.702-83.55 39.198-127.05 54.523-83 29.259-170.37 44.761-257.97 37.352-88.25-7.473-170.94-37.39-251.86-73.957-84.81-38.288-168.447-83.605-258.287-107.566-88.994-23.721-181.956-27.123-271.809-6.323-87.427 20.231-170.722 59.075-245.778 110.386-66.351 45.368-127.988 98.917-192.064 148.028H2167v-210.39l-4.88-1.644Z" fill="#65D5F5"/>
    <path d="M681.056 618.236c-88.286 9.724-176.724 45.722-255.091 88.713-59.224 32.484-114.088 71.682-164.998 116.038h845.953c-64.21-32.875-121.379-79.47-181.134-120.21-73.932-50.388-153.967-94.543-244.73-84.541ZM2109.1 643.968c-77.63-14.516-154.85 11.013-223.01 49.439-81.36 45.874-165.34 93.354-252.71 129.543h533.58V665.274c-18.22-9.926-37.51-17.513-57.86-21.306Z" fill="#09B0EC" style="mix-blend-mode:multiply" opacity=".5"/>
    <path d="M643.212 720.922c-99.393 3.376-190.067 46.961-274.474 102.065h553.447c-19.257-8.965-38.021-18.966-56.128-28.905-34.445-18.865-68.852-40.601-105.711-53.865-37.642-13.555-77.255-20.661-117.134-19.295ZM2076.1 736.879c-61.3 3.654-116.47 26.313-172.04 52.348a661.61 661.61 0 0 1-88.75 33.76H2167v-78.901c-30.17-4.817-60.36-9.079-90.9-7.207Z" fill="#06A0DE" style="mix-blend-mode:multiply" opacity=".5"/>
    <path d="M0 579.873s131.261 90.8 368.738 0c0 0-146.79 123.688-368.738 119.932V579.873ZM793.768 347.797s122.099-122.284 249.722-17.689c0 0-106.395-49.465-249.722 17.689Z" fill="#09B0EC"/>
    <path d="M1431.41 322.319c-51.81-.721-105.44-4.527-153.41-23.86-15.67-6.322-7.45-22.836-19.5-34.608-10.02-9.787-46.83-14.453-59.04-7.498-3.15-21.078-24.43-37.82-45.85-36.087-10.64-19.397-33.71-31.308-55.83-28.83-5.58-18.056-28.59-28.475-46-20.825-5.21-12.644-19.55-19.182-33.17-21.129-13.62-1.947-27.61-.493-41.131-3.022-12.18-2.263-23.629-7.675-35.898-9.395-12.269-1.719-26.535 1.404-32.853 12.013-28.974-19.776-71.632-16.704-97.422 7.017-11.284-5.791-26.75-1.454-33.308 9.345a20.775 20.775 0 0 0-25.423 1.024 20.37 20.37 0 0 0-3.791 24.96c-6.659-11.039-32.512-6.626-41.205-1.859-3.437 0-6.078 3.92-8.352 8.573-18.701-5.766-42.494-7.384-58.972 3.123a40.456 40.456 0 0 0-14.493 15.949 40.49 40.49 0 0 0 2.946 41.452 40.438 40.438 0 0 0 16.602 13.737c12.294 5.614 26.459 4.88 39.954 3.793 13.748-1.138 27.976-2.681 39.879-9.622a40.152 40.152 0 0 0 11.283-9.838l.342-.291c1.453-1.264 2.982-2.794 4.928-3.06a8.855 8.855 0 0 1 3.904.645c17.753 5.678 34.989 13.138 54.018 12.936 20.735-.203 42.722-10.432 50.707-29.411 30.2 16.437 69.838 14.035 97.776-5.956-.417 12.645 13.558 22.014 26.358 21.799 12.801-.215 24.413-6.992 35.591-13.188 11.19-6.196 23.49-12.164 36.21-10.571l5.87 9.648c6.03-8.522 19.99-2.959 26.54 5.159 6.54 8.118 11.86 18.966 22.11 21.179 12.8 2.744 28.48-9.445 37.81-.328 2.8 2.756 3.9 6.726 5.35 10.368 9.49 23.885 40.22 36.896 64.18 27.173a26.66 26.66 0 0 0 15.86 27.249c10.49 4.349 30.32-3.402 37.31-12.278 45.6 20.547 98.88 28.538 148.94 29.992 64.71 1.897 124.68-18.069 164.27-68.823-41.2 31.181-91.29 44.066-143.09 43.345ZM1989.69 2.301c-18.39-3.793-40.91-4.526-52.19 10.862-12.79-13.732-35.57-16.084-50.76-5.21-8.78 6.26-24.35-5.45-34.26-2.453-12.37 3.794-22.29 12.316-29.25 23.127-32.5-27.097-47.43 6.524-38.6 31.485-25.99 12.77-62.67 42.042-91.9 99.992 12.63-11.001 25.57-21.673 38.61-32.193 11.57-9.306 23.24-18.448 35.17-27.299 9.17-6.803 19.79-20.03 32.02-20.838 9.2-.607 16.56 3.793 26.07 1.833 11.37-2.402 21.79-7.372 32.28-12.24 16.43-7.586 32.98-17.702 51-21.053 35.8-6.676 72.83-5.26 108.51 1.505 52.48 9.964 102.35 31.093 150.61 54.371-46.94-51.716-109.83-87.866-177.31-101.889Z" fill="#C8FFFF"/>
  </g>
  <defs>
    <clipPath id="a">
      <path fill="#fff" d="M0 0h2167v823H0z"/>
    </clipPath>
  </defs>
</svg>

<svg width="2167" height="823" viewBox="0 0 2167 823" fill="none" xmlns="http://www.w3.org/2000/svg">
<g clip-path="url(#clip0)">
<path d="M2098.06 53.8905C2046.25 30.2707 1989.72 21.4829 1934.32 26.0728C1878.93 30.6627 1821.32 46.4303 1773.84 81.3921C1723.84 118.149 1685.39 170.776 1642.55 217.686C1600.85 263.358 1555.09 300.571 1498.36 313.607C1423.26 330.867 1346.67 322.117 1273.6 296.866C1237.31 284.31 1201.88 268.669 1167.1 251.181C1129.2 232.126 1092.38 208.519 1053.38 192.663C897.962 129.441 742.643 194.383 595.171 255.809C520.367 286.927 446.549 314.795 367.474 325C295.576 334.268 225.599 333.56 156.937 304.149C100.442 279.947 48.2688 244.252 0.0632324 201.489V670.736H2167.1V99.7898C2146.66 80.9258 2123.36 65.4328 2098.06 53.8905V53.8905Z" fill="#65D5F5"/>
<path d="M2132.78 127.683C2068.98 88.3338 1991.17 79.2678 1920.88 95.3262C1862.76 108.603 1815.62 149.849 1774.31 197.923C1733.23 245.681 1696.49 299.078 1651.84 342.449C1601.9 391.003 1541.91 422.501 1476.86 428.772C1405.55 435.663 1335.91 413.384 1271.45 378.675C1236.74 359.987 1203.22 338.415 1170.36 315.655C1135.44 291.492 1101.61 265.204 1062.34 251.738C915.855 201.514 779.3 316.224 652.676 386.224C584.23 424.128 509.397 449.104 431.917 459.903C392.43 465.416 352.905 467.148 313.14 466.92C278.088 466.718 242.481 465.997 208.074 457.159C138.728 439.356 76.0927 388.437 21.4177 336.873C14.19 330.061 7.02972 323.124 -0.0631714 316.06V670.736H2166.97V156.93C2157.13 145.497 2145.6 135.635 2132.78 127.683Z" fill="#0AC0EF"/>
<path d="M2081.1 195.091C2039.76 183.711 1996.29 178.577 1954.33 188.667C1918.95 197.202 1885.82 214.879 1856.15 239.245C1830.33 260.399 1806.8 285.169 1784.75 311.533C1761.73 339.047 1740.13 367.523 1713.68 390.687C1662.38 435.613 1601.86 464.606 1538.6 475.215C1475.33 485.824 1410.86 480.665 1349.2 461.888C1293.01 444.704 1242.68 415.104 1193.72 378.688C1147.13 344.08 1101.89 305.35 1051.42 278.797C998.025 250.688 940.115 239.94 882.837 257.554C815.981 278.127 756.934 326.062 701.223 372.555C644.943 419.542 589.043 468.956 525.586 501.895C458.742 536.49 385.594 559.25 312.218 559.25C241.735 559.174 166.906 548.287 99.6332 522.91C60.6771 508.192 28.1399 482.524 0 450.445V822.987H2167.04V245.757C2142.73 220.19 2114.36 204.207 2081.1 195.091Z" fill="#3DCBF2"/>
<path d="M2166.81 302.568C2117.63 292.242 2067.44 287.508 2017.19 288.457C1978.51 289.127 1938.37 293.173 1902.39 307.424C1865.88 321.826 1837.95 349.643 1806.83 371.683C1723.62 430.492 1616.55 491.274 1510.9 500.845C1558.17 496.572 1602.99 496.205 1649.89 484.825C1701.31 472.358 1751.73 453.821 1797.85 429.126C1823.77 415.217 1846.68 396.794 1872.98 383.467C1903.17 368.168 1933.71 364.968 1967.41 362.389C2032.01 357.458 2106.17 354.094 2167.05 378.827L2166.81 302.568Z" fill="#0AC0EF"/>
<path d="M645.461 505.423C664.124 496.989 683.04 477.276 701.526 466.579C749.985 438.534 803.383 417.911 858.741 408.314C1034.11 377.967 1198.64 500.871 1365.99 533.822C1541.07 568.291 1735.21 566.28 1891.83 471.498C1871.15 484.016 1852.74 511.479 1832 526.248C1772.28 568.746 1703.57 592.682 1634.57 603.784C1506.94 624.331 1375.53 602.001 1253.26 564.586C1161.27 536.414 1084.32 472.37 989.938 450.634C887.336 427.015 779.06 451.317 683.23 489.415C670.56 494.422 657.971 499.758 645.461 505.423Z" fill="#0AC0EF"/>
<path d="M877.075 502.477C907.515 502.685 937.908 504.911 968.053 509.14C1046.4 520.33 1109.64 555.532 1181.96 582.781C1299.58 627.037 1426.45 654.096 1552.64 650.682C1659.07 647.811 1761.47 616.542 1852.6 562.272C1890.5 539.689 1924.42 504.5 1965.16 488.011C2008.12 470.651 2059.57 474.406 2103.64 484.218C2077.72 478.427 2022.27 520.229 2003.48 532.621C1970.3 554.525 1939.19 579.424 1910.54 607.008C1881.94 634.623 1860.23 669.459 1826.83 692.016C1728.27 758.577 1567.31 773.977 1452.03 775.103C1263.63 776.936 1089.65 721.668 922.248 639.808C922.248 639.808 664.15 513.654 488.917 595.249C554.699 564.624 612.116 534.935 685.694 521.102C748.519 509.368 812.911 501.895 877.075 502.477Z" fill="#09B0EC"/>
<path d="M2162.12 610.953C2122.7 597.816 2081.49 588.054 2040.14 585.512C1987.81 582.288 1934.51 596.892 1884.6 611.863C1839.9 625.35 1796.08 641.609 1753.39 660.544C1711.16 679.246 1669.84 699.742 1626.34 715.067C1543.34 744.326 1455.97 759.828 1368.37 752.419C1280.12 744.946 1197.43 715.029 1116.51 678.462C1031.7 640.174 948.063 594.857 858.223 570.896C769.229 547.175 676.267 543.773 586.414 564.573C498.987 584.804 415.692 623.648 340.636 674.959C274.285 720.327 212.648 773.876 148.572 822.987H2167V612.597L2162.12 610.953Z" fill="#65D5F5"/>
<g style="mix-blend-mode:multiply" opacity="0.5">
<path d="M681.056 618.236C592.77 627.96 504.332 663.958 425.965 706.949C366.741 739.433 311.877 778.631 260.967 822.987H1106.92C1042.71 790.112 985.541 743.517 925.786 702.777C851.854 652.389 771.819 608.234 681.056 618.236Z" fill="#09B0EC"/>
</g>
<g style="mix-blend-mode:multiply" opacity="0.5">
<path d="M2109.1 643.968C2031.47 629.452 1954.25 654.981 1886.09 693.407C1804.73 739.281 1720.75 786.761 1633.38 822.95H2166.96V665.274C2148.74 655.348 2129.45 647.761 2109.1 643.968Z" fill="#09B0EC"/>
</g>
<g style="mix-blend-mode:multiply" opacity="0.5">
<path d="M643.212 720.922C543.819 724.298 453.145 767.883 368.738 822.987H922.185C902.928 814.022 884.164 804.021 866.057 794.082C831.612 775.217 797.205 753.481 760.346 740.217C722.704 726.662 683.091 719.556 643.212 720.922Z" fill="#06A0DE"/>
</g>
<g style="mix-blend-mode:multiply" opacity="0.5">
<path d="M2076.1 736.879C2014.8 740.533 1959.63 763.192 1904.06 789.227C1875.32 802.593 1845.66 813.875 1815.31 822.987H2167V744.086C2136.83 739.269 2106.64 735.007 2076.1 736.879Z" fill="#06A0DE"/>
</g>
<path d="M0 579.873C0 579.873 131.261 670.673 368.738 579.873C368.738 579.873 221.948 703.561 0 699.805V579.873Z" fill="#09B0EC"/>
<path d="M793.768 347.797C793.768 347.797 915.867 225.513 1043.49 330.108C1043.49 330.108 937.095 280.643 793.768 347.797Z" fill="#09B0EC"/>
<path d="M1431.41 322.319C1379.6 321.598 1325.97 317.792 1278 298.459C1262.33 292.137 1270.55 275.623 1258.5 263.851C1248.48 254.064 1211.67 249.398 1199.46 256.353C1196.31 235.275 1175.03 218.533 1153.61 220.266C1142.97 200.869 1119.9 188.958 1097.78 191.436C1092.2 173.38 1069.19 162.961 1051.78 170.611C1046.57 157.967 1032.23 151.429 1018.61 149.482C1004.99 147.535 991 148.989 977.479 146.46C965.299 144.197 953.85 138.785 941.581 137.065C929.312 135.346 915.046 138.469 908.728 149.078C879.754 129.302 837.096 132.374 811.306 156.095C800.022 150.304 784.556 154.641 777.998 165.44C774.246 162.768 769.713 161.419 765.112 161.604C760.51 161.79 756.101 163.499 752.575 166.464C749.229 169.59 747.034 173.755 746.346 178.285C745.658 182.814 746.517 187.443 748.784 191.424C742.125 180.385 716.272 184.798 707.579 189.565C704.142 189.565 701.501 193.485 699.227 198.138C680.526 192.372 656.733 190.754 640.255 201.261C634.072 205.168 629.063 210.68 625.762 217.21C622.462 223.74 620.992 231.044 621.511 238.343C622.029 245.643 624.517 252.665 628.708 258.662C632.898 264.659 638.636 269.406 645.31 272.399C657.604 278.013 671.769 277.279 685.264 276.192C699.012 275.054 713.24 273.511 725.143 266.57C729.487 264.027 733.315 260.69 736.426 256.732L736.768 256.441C738.221 255.177 739.75 253.647 741.696 253.381C743.029 253.299 744.364 253.519 745.6 254.026C763.353 259.704 780.589 267.164 799.618 266.962C820.353 266.759 842.34 256.53 850.325 237.551C880.525 253.988 920.163 251.586 948.101 231.595C947.684 244.24 961.659 253.609 974.459 253.394C987.26 253.179 998.872 246.402 1010.05 240.206C1021.24 234.01 1033.54 228.042 1046.26 229.635L1052.13 239.283C1058.16 230.761 1072.12 236.324 1078.67 244.442C1085.21 252.56 1090.53 263.408 1100.78 265.621C1113.58 268.365 1129.26 256.176 1138.59 265.293C1141.39 268.049 1142.49 272.019 1143.94 275.661C1153.43 299.546 1184.16 312.557 1208.12 302.834C1207.52 308.473 1208.74 314.156 1211.59 319.056C1214.44 323.957 1218.78 327.819 1223.98 330.083C1234.47 334.432 1254.3 326.681 1261.29 317.805C1306.89 338.352 1360.17 346.343 1410.23 347.797C1474.94 349.694 1534.91 329.728 1574.5 278.974C1533.3 310.155 1483.21 323.04 1431.41 322.319Z" fill="#C8FFFF"/>
<path d="M1989.69 2.30126C1971.3 -1.49206 1948.78 -2.22544 1937.5 13.1628C1924.71 -0.569019 1901.93 -2.92088 1886.74 7.95332C1877.96 14.2123 1862.39 2.50357 1852.48 5.5003C1840.11 9.29363 1830.19 17.816 1823.23 28.6269C1790.73 1.52995 1775.8 35.1515 1784.63 60.1116C1758.64 72.8824 1721.96 102.154 1692.73 160.104C1705.36 149.103 1718.3 138.431 1731.34 127.911C1742.91 118.605 1754.58 109.463 1766.51 100.612C1775.68 93.8089 1786.3 80.5829 1798.53 79.7736C1807.73 79.1667 1815.09 83.567 1824.6 81.6071C1835.97 79.2046 1846.39 74.2354 1856.88 69.3673C1873.31 61.7806 1889.86 51.6651 1907.88 48.3143C1943.68 41.6381 1980.71 43.0542 2016.39 49.819C2068.87 59.7828 2118.74 80.9116 2167 104.19C2120.06 52.4743 2057.17 16.3239 1989.69 2.30126Z" fill="#C8FFFF"/>
</g>
<defs>
<clipPath id="clip0">
<rect width="2167" height="823" fill="white"/>
</clipPath>
</defs>
</svg>
